site/static/images/arrow-up-right.svg

<svg fill="none" height="9" viewBox="0 0 9 9" width="9" xmlns="http://www.w3.org/2000/svg"><path clip-rule="evenodd" d="m.53033.75c0-.414214.335787-.75.75-.75h6.01041c.41421 0 .75.335786.75.75v6.01041c0 .41421-.33579.75-.75.75-.41422 0-.75-.33579-.75-.75v-4.19975l-5.26041 5.26041c-.292893.29289-.767767.29289-1.06066 0-.2928933-.2929-.2928933-.76777 0-1.06066l5.26041-5.26041h-4.19975c-.414213 0-.75-.33579-.75-.75z" fill="#0075ff" fill-rule="evenodd"/></svg>

<svg width="9" height="9" viewBox="0 0 9 9" fill="none" xmlns="http://www.w3.org/2000/svg">
<path fill-rule="evenodd" clip-rule="evenodd" d="M0.53033 0.75C0.53033 0.335786 0.866117 0 1.28033 0H7.29074C7.70495 0 8.04074 0.335786 8.04074 0.75V6.76041C8.04074 7.17462 7.70495 7.51041 7.29074 7.51041C6.87652 7.51041 6.54074 7.17462 6.54074 6.76041V2.56066L1.28033 7.82107C0.987437 8.11396 0.512563 8.11396 0.21967 7.82107C-0.0732233 7.52817 -0.0732233 7.0533 0.21967 6.76041L5.48008 1.5H1.28033C0.866117 1.5 0.53033 1.16421 0.53033 0.75Z" fill="#0075ff"/>
</svg>
